!!!COM: Palestrina, Giovanni Perluigi da
!!!OPR: Missa O sacrum convivium
!!!OTL: Agnus II
**kern	**kern	**kern	**kern	**kern
*Ibass	*Itenor	*Itenor	*Icalto	*Icant
!Bassus	!Tenor 2	!Tenor 1	!Altus	!Cantus
*clefF4	*clefGv2	*clefGv2	*clefG2	*clefG2
*k[b-]	*k[b-]	*k[b-]	*k[b-]	*k[b-]
*F:ion	*F:ion	*F:ion	*F:ion	*F:ion
*M4/2	*M4/2	*M4/2	*M4/2	*M4/2
=1	=1	=1	=1	=1
0r	1.B-	0r	0r	0r
.	2c	.	.	.
=2	=2	=2	=2	=2
0r	2.d	0r	1.B-	0f
.	4c	.	.	.
.	2B-	.	.	.
.	2A	.	2c	.
=3	=3	=3	=3	=3
0r	4B-	2r	2.d	0f
.	4c	.	.	.
.	4d	1B-	.	.
.	4e	.	4c	.
.	2f	.	2B-	.
.	2F	2c	2A	.
=4	=4	=4	=4	=4
0r	2r	2.d	2.B-	0f
.	1B-	.	.	.
.	.	4c	4c	.
.	.	2B-	4d	.
.	.	.	4e	.
.	2c	2A	[2f	.
=5	=5	=5	=5	=5
0r	4d	0G	2f]	0g
.	4c	.	.	.
.	4B-	.	4e	.
.	4A	.	4d	.
.	1B-	.	2e	.
.	.	.	4d	.
.	.	.	4e	.
=6	=6	=6	=6	=6
2r	1c	1F	4f	2a
.	.	.	4g	.
1F	.	.	1a	1cc
.	1d	1r	.	.
2G	.	.	2g	2b
=7	=7	=7	=7	=7
2.A	[0c	2.F	2r	1cc
.	.	.	1f	.
4G	.	4G	.	.
2F	.	2A	.	[1cc
2E	.	2G	2g	.
=8	=8	=8	=8	=8
2.F	1c]	4F	2.a	1cc]
.	.	4G	.	.
.	.	4A	.	.
4G	.	4B-	4g	.
4A	1r	1c	2f	1cc
4B-	.	.	.	.
[2c	.	.	2e	.
=9	=9	=9	=9	=9
2c]	0g	0G	0d	0dd
4B	.	.	.	.
4A	.	.	.	.
1B	.	.	.	.
=10	=10	=10	=10	=10
2.c	1g	0r	2c	1ee
.	.	.	2e	.
4B-	.	.	.	.
4A	2.a	.	2.f	1r
4G	.	.	.	.
[2F	.	.	.	.
.	4g	.	4g	.
=11	=11	=11	=11	=11
2F]	2f	1r	4a	1cc
.	.	.	4b-	.
2C	2e	.	1cc	.
1r	1d	1f	.	1dd
.	.	.	2b	.
=12	=12	=12	=12	=12
0r	1c	1g	1cc	1ee
.	1r	1a	1f	2cc
.	.	.	.	[2ff
=13	=13	=13	=13	=13
0r	0r	2f	2a	4ff]
.	.	.	.	4ee
.	.	2.g	2.b-	4dd
.	.	.	.	4cc
.	.	.	.	2dd
.	.	4f	4a	.
.	.	4e	4g	[2cc
.	.	4d	4f	.
=14	=14	=14	=14	=14
0r	0r	2e	2g	4cc]
.	.	.	.	4b-
.	.	2.f	4cc	4a
.	.	.	4b-	4g
.	.	.	4a	4a
.	.	4e	4g	4b-
.	.	4d	[2a	[2cc
.	.	4c	.	.
=15	=15	=15	=15	=15
0r	1f	1d	4a]	2cc]
.	.	.	4g	.
.	.	.	1f	2b
.	1g	2.c	.	[1cc
.	.	.	2e	.
.	.	4B-	.	.
=16	=16	=16	=16	=16
1F	1a	4A	1f	1cc]
.	.	4F	.	.
.	.	1c	.	.
1G	1g	.	1d	1r
.	.	2B	.	.
=17	=17	=17	=17	=17
1A	2e	2c	2c	0r
.	2.f	2F	2c	.
2F	.	2A	1d	.
.	4e	.	.	.
[2G	4d	[2B-	.	.
.	4c	.	.	.
=18	=18	=18	=18	=18
4G]	2d	4B-]	2G	0r
4F	.	4A	.	.
4E	2.c	4G	2g	.
4D	.	4F	.	.
2E	.	2G	2g	.
.	4B-	.	.	.
[2F	4A	[2c	[2a	.
.	4G	.	.	.
=19	=19	=19	=19	=19
4F]	2A	2c]	4a]	0r
4E	.	.	4g	.
4D	2.B-	1d	4f	.
4C	.	.	4e	.
1D	.	.	4d	.
.	4A	.	4e	.
.	4G	2B-	[2f	.
.	4F	.	.	.
=20	=20	=20	=20	=20
1C	1G	1c	2f]	2r
.	.	.	2e	2g
1F	2F	1c	1f	4a
.	.	.	.	4b-
.	2c	.	.	4cc
.	.	.	.	4a
=21	=21	=21	=21	=21
0r	4d	0r	2r	2b-
.	4e	.	.	.
.	4f	.	2f	2a
.	4d	.	.	.
.	2e	.	4g	1g
.	.	.	4a	.
.	2g	.	4b-	.
.	.	.	4g	.
=22	=22	=22	=22	=22
0r	2.f	0r	2a	1cc
.	.	.	2cc	.
.	4e	.	.	.
.	1d	.	2b-	4dd
.	.	.	.	4ee
.	.	.	4a	4ff
.	.	.	4b-	4dd
=23	=23	=23	=23	=23
0r	2c	1r	4cc	2ee
.	.	.	4b-	.
.	1d	.	4a	1ff
.	.	.	4g	.
.	.	2r	4f	.
.	.	.	4g	.
.	2A	2c	[2a	2ee
=24	=24	=24	=24	=24
1r	2B-	2d	2a]	2dd
.	2c	2e	2g	1cc
2r	1F	2.f	1a	.
2F	.	.	.	2a
.	.	4e	.	.
=25	=25	=25	=25	=25
4G	2r	2d	0r	4b-
4A	.	.	.	4cc
4B-	2G	2g	.	4dd
4G	.	.	.	4b-
2A	2c	4f	.	2cc
.	.	4e	.	.
[2B-	4B-	4d	.	[2dd
.	4c	4c	.	.
=26	=26	=26	=26	=26
2B-]	4d	2B-	2r	2dd]
.	4e	.	.	.
2A	1f	2c	2f	2cc
1G	.	2d	4g	2b-
.	.	.	4a	.
.	2e	2B-	4b-	2g
.	.	.	4g	.
=27	=27	=27	=27	=27
2F	2.f	2r	2a	1cc
2A	.	2c	2cc	.
.	8e	.	.	.
.	8f	.	.	.
2G	2g	4d	2b-	2r
.	.	4e	.	.
2F	2c	4f	2a	[2cc
.	.	4d	.	.
=28	=28	=28	=28	=28
2c	1r	2e	2g	2cc]
2d	.	2.f	2f	2b
1c	2r	.	1g	1cc
.	.	4e	.	.
.	2c	4e	.	.
.	.	8d	.	.
.	.	8e	.	.
=29	=29	=29	=29	=29
0r	4d	2f	2r	2a
.	4e	.	.	.
.	4f	2B-	2b-	2.dd
.	4d	.	.	.
.	2e	2c	2g	.
.	.	.	.	4cc
.	2f	2F	[2a	[2cc
=30	=30	=30	=30	=30
1r	2d	2r	2a]	2cc]
.	2d	2G	4g	2b
.	.	.	4f	.
2r	2c	4A	2e	1cc
.	.	4B-	.	.
2C	2e	4c	2c	.
.	.	4A	.	.
=31	=31	=31	=31	=31
4D	2d	2B-	1f	1r
4E	.	.	.	.
4F	2d	2A	.	.
4D	.	.	.	.
2E	4c	2G	2g	2r
.	4B-	.	.	.
2F	4A	[2c	[2a	2cc
.	4G	.	.	.
=32	=32	=32	=32	=32
1D	1F	4c]	4a]	4dd
.	.	4B	4g	4ee
.	.	2B	1f	4ff
.	.	.	.	4dd
1C	1G	[1c	.	4ee
.	.	.	.	4dd
.	.	.	2e	4cc
.	.	.	.	4b-
=33	=33	=33	=33	=33
2F	[0F	1c]	[0f	2.a
1F	.	.	.	.
.	.	.	.	4b-
.	.	2.A	.	2cc
2D	.	.	.	[2dd
.	.	4A	.	.
=34	=34	=34	=34	=34
2BB-	1F_	2B-	1f_	2dd]
2AA	.	2c	.	2cc
1BB-	1F_	1d	1f_	1b-
=35	=35	=35	=35	=35
0F	0F]	0c	0f]	0a
==	==	==	==	==
*-	*-	*-	*-	*-
!!!CDT: 1525/^1526/-1594/2/2
!!!OCY: Italia
!!!AGN: Mass (Parody)
!!!AST: renaissance, vocal
!!!ASW: Motet (Morales)
!!!PWK: Masses, Book 8
!!!RNB: Cadence finals: C
!!!YOR: Le Opere Complete, v. 24, p. 227
!!!YOO: Rome, Italy: Fratelli Scalera
!!!END: 1992//
!!!EED: John Miller
!!!YEC: Copyright 2000, John Miller
!!!YEN: United States of America
!!!YEM: Rights to all derivative electronic formats reserved.
!!!YEM: Refer to licensing agreement for further details.
!!!YEM: This file must be accompanied by the licensing agreement.
!!!YEM: A copy of the licensing agreement may be found at http://www.music-cog.ohio-state.edu/HumdrumDatabases/Palestrina/license.txt
!!!EMD: converted to Humdrum by Bret Aarden
